lib/flags/l/CUW.svg

<svg xmlns="http://www.w3.org/2000/svg" fill="none" viewBox="0 0 32 24"><mask id="CUW_svg__a" width="32" height="24" x="0" y="0" mask-type="alpha" maskUnits="userSpaceOnUse"><path fill="#fff" d="M0 0H32V24H0z"/></mask><g mask="url(#CUW_svg__a)"><path fill="#2E42A5" fill-rule="evenodd" d="M0 0V24H32V0H0Z" clip-rule="evenodd"/><mask id="CUW_svg__b" width="32" height="24" x="0" y="0" mask-type="alpha" maskUnits="userSpaceOnUse"><path fill="#fff" fill-rule="evenodd" d="M0 0V24H32V0H0Z" clip-rule="evenodd"/></mask><g fill-rule="evenodd" clip-rule="evenodd" mask="url(#CUW_svg__b)"><path fill="#F7FCFF" d="M4.25442 6.14923 2.26558 7.19891 3.22584 5.33053 2 3.96315 3.52334 3.90693 4.25442 2 4.81233 3.90693 6.59497 3.96315 5.31147 5.33053 6.12572 7.19891 4.25442 6.14923zM11.3524 11.0766 8.89776 12.1048 9.86073 9.52818 7.72656 7.7993H10.2839L11.3524 5.01221 12.1678 7.7993H14.729L12.909 9.52818 13.8127 12.1048 11.3524 11.0766z"/><path fill="#F9E813" d="M0 14V18H32V14H0Z"/></g></g></svg>

<svg xmlns="http://www.w3.org/2000/svg" fill="none" viewBox="0 0 32 24"><mask id="CUW_svg__a" width="32" height="24" x="0" y="0" maskUnits="userSpaceOnUse"><path fill="#fff" d="M0 0h32v24H0z"/></mask><g mask="url(#CUW_svg__a)"><path fill="#2E42A5" fill-rule="evenodd" d="M0 0v24h32V0H0z" clip-rule="evenodd"/><mask id="CUW_svg__b" width="32" height="24" x="0" y="0" maskUnits="userSpaceOnUse"><path fill="#fff" fill-rule="evenodd" d="M0 0v24h32V0H0z" clip-rule="evenodd"/></mask><g fill-rule="evenodd" clip-rule="evenodd" mask="url(#CUW_svg__b)"><path fill="#F7FCFF" d="M4.254 6.15L2.266 7.198l.96-1.868L2 3.963l1.523-.056L4.254 2l.558 1.907 1.783.056-1.284 1.368.815 1.868-1.872-1.05zm7.098 4.926l-2.454 1.029.963-2.577L7.726 7.8h2.558l1.068-2.787.816 2.787h2.56l-1.82 1.73.905 2.576-2.46-1.029z"/><path fill="#F9E813" d="M0 14v4h32v-4H0z"/></g></g></svg>
